X:13
T:Call an Barusther, The
T:Theen's Brog Frod and of the Rind the Cherom's Fentinn
R:polka
Z:id:hn-polka-73
M:2/4
L:1/8
K:D
dd dB|d2 dB/c/|dB cd|ed B2|dd BA|A>B cB|AG AB|cB AB/c/|dB AB/d/|ed cB/d/|fg fe|dB cB/A/|1 AG G2::|

